X:101
T:Wilhelmine's Rose
M:3/4
L:1/8
C:Don Pettigrew, 1979
K:D
FE |:"D"D3 F A2|"D7"d6|"G"B3 c d2|"D"(A2 F4)|D2 (F2 A2)|
"Bm"d6|"Em"B3 c d2|"A7"c2 (B2 A2)|"D"D3 F A2|"D7"d6|"G"B3 c d2|
"D"(A2 F4)|D2 (F2 A2)|d2 (A2 F2)|"A7"E6|[1 "D"D4 (FE):|[2 "D"D6||
|:"D"f4 (de)|"D7"f2 (e2 d2)|"G"d4 (Bc)|d2 (c2 B2)|"D"A2 .d3 d|"Bm"d2 (c2 d2)|
"Em"f2 (e2 d2)|"A7"e4 A2|"D"f4 (de)|"D7"f2 (e2 d2)|"G"d4 (Bc)|d2 (c2 B2)|
"D"A2 .d3 d|"A7"(c2 d2 e2)|"D"d6|[1 "A7"(AB) (cd) e=f:|[2 "D"d6||
